X: 31485
T: Paddy Whack
R: jig
M: 6/8
K: Amajor
|:E|Ace aga|fed c2 B|Ace fba|gee e2 g|
aba aec|dfa e2 A|AA/B/c dBe|cAA A2:|
|:f|eA/c/e f2 f|ec/B/A BGE|Ace fga|ge^d efg|
ac'a bge|fga ecA|AGA Bed|cAG A2:|

